images/3234178.svg

<?xml version="1.0" encoding="UTF-8"?>
<svg xmlns="http://www.w3.org/2000/svg" xmlns:xlink="http://www.w3.org/1999/xlink" width="300pt" height="300pt" viewBox="0 0 300 300" version="1.1">
<defs>
<g>
<symbol overflow="visible" id="glyph0-0">
<path style="stroke:none;" d="M 0.453125 1.59375 L 0.453125 -6.34375 L 4.953125 -6.34375 L 4.953125 1.59375 Z M 0.953125 1.09375 L 4.453125 1.09375 L 4.453125 -5.84375 L 0.953125 -5.84375 Z M 0.953125 1.09375 "/>
</symbol>
<symbol overflow="visible" id="glyph0-1">
<path style="stroke:none;" d="M 3.546875 -5.953125 C 2.898438 -5.953125 2.382812 -5.710938 2 -5.234375 C 1.625 -4.753906 1.4375 -4.101562 1.4375 -3.28125 C 1.4375 -2.445312 1.625 -1.789062 2 -1.3125 C 2.382812 -0.832031 2.898438 -0.59375 3.546875 -0.59375 C 4.191406 -0.59375 4.703125 -0.832031 5.078125 -1.3125 C 5.453125 -1.789062 5.640625 -2.445312 5.640625 -3.28125 C 5.640625 -4.101562 5.453125 -4.753906 5.078125 -5.234375 C 4.703125 -5.710938 4.191406 -5.953125 3.546875 -5.953125 Z M 3.546875 -6.6875 C 4.460938 -6.6875 5.195312 -6.375 5.75 -5.75 C 6.300781 -5.132812 6.578125 -4.3125 6.578125 -3.28125 C 6.578125 -2.238281 6.300781 -1.410156 5.75 -0.796875 C 5.195312 -0.179688 4.460938 0.125 3.546875 0.125 C 2.617188 0.125 1.878906 -0.179688 1.328125 -0.796875 C 0.773438 -1.410156 0.5 -2.238281 0.5 -3.28125 C 0.5 -4.3125 0.773438 -5.132812 1.328125 -5.75 C 1.878906 -6.375 2.617188 -6.6875 3.546875 -6.6875 Z M 3.546875 -6.6875 "/>
</symbol>
<symbol overflow="visible" id="glyph0-2">
<path style="stroke:none;" d="M 0.890625 -6.5625 L 2.078125 -6.5625 L 4.984375 -1.078125 L 4.984375 -6.5625 L 5.84375 -6.5625 L 5.84375 0 L 4.65625 0 L 1.75 -5.484375 L 1.75 0 L 0.890625 0 Z M 0.890625 -6.5625 "/>
</symbol>
<symbol overflow="visible" id="glyph0-3">
<path style="stroke:none;" d="M 0.890625 -6.5625 L 4.65625 -6.5625 L 4.65625 -5.8125 L 1.765625 -5.8125 L 1.765625 -3.875 L 4.375 -3.875 L 4.375 -3.140625 L 1.765625 -3.140625 L 1.765625 0 L 0.890625 0 Z M 0.890625 -6.5625 "/>
</symbol>
</g>
</defs>
<g id="surface55509">
<rect x="0" y="0" width="300" height="300" style="fill:rgb(100%,100%,100%);fill-opacity:1;stroke:none;"/>
<path style="fill:none;stroke-width:1.2;stroke-linecap:butt;stroke-linejoin:miter;stroke:rgb(0%,0%,0%);stroke-opacity:1;stroke-miterlimit:10;" d="M 46.929688 93.050781 L 41.472656 102.066406 "/>
<path style="fill:none;stroke-width:1.2;stroke-linecap:butt;stroke-linejoin:miter;stroke:rgb(100%,0%,0%);stroke-opacity:1;stroke-miterlimit:10;" d="M 41.472656 102.066406 L 36.015625 111.078125 "/>
<path style="fill:none;stroke-width:1.2;stroke-linecap:butt;stroke-linejoin:miter;stroke:rgb(100%,0%,0%);stroke-opacity:1;stroke-miterlimit:10;" d="M 36.015625 111.078125 L 41.089844 120.3125 "/>
<path style="fill:none;stroke-width:1.2;stroke-linecap:butt;stroke-linejoin:miter;stroke:rgb(0%,0%,0%);stroke-opacity:1;stroke-miterlimit:10;" d="M 41.089844 120.3125 L 46.167969 129.546875 "/>
<path style=" stroke:none;fill-rule:nonzero;fill:rgb(100%,100%,100%);fill-opacity:1;" d="M 32.015625 105.578125 L 40.015625 105.578125 L 40.015625 116.578125 L 32.015625 116.578125 Z M 32.015625 105.578125 "/>
<g style="fill:rgb(100%,0%,0%);fill-opacity:1;">
  <use xlink:href="#glyph0-1" x="32.015625" y="114.241211"/>
</g>
<path style="fill:none;stroke-width:1.2;stroke-linecap:butt;stroke-linejoin:miter;stroke:rgb(0%,0%,0%);stroke-opacity:1;stroke-miterlimit:10;" d="M 46.167969 129.546875 L 67.238281 129.988281 "/>
<path style="fill:none;stroke-width:1.2;stroke-linecap:butt;stroke-linejoin:miter;stroke:rgb(0%,0%,0%);stroke-opacity:1;stroke-miterlimit:10;" d="M 48.171875 134.546875 L 65.027344 134.902344 "/>
<path style="fill:none;stroke-width:1.2;stroke-linecap:butt;stroke-linejoin:miter;stroke:rgb(0%,0%,0%);stroke-opacity:1;stroke-miterlimit:10;" d="M 35.25 147.574219 L 46.167969 129.546875 "/>
<path style="fill:none;stroke-width:1.2;stroke-linecap:butt;stroke-linejoin:miter;stroke:rgb(0%,0%,0%);stroke-opacity:1;stroke-miterlimit:10;" d="M 67.238281 129.988281 L 77.390625 148.457031 "/>
<path style="fill:none;stroke-width:1.2;stroke-linecap:butt;stroke-linejoin:miter;stroke:rgb(0%,0%,0%);stroke-opacity:1;stroke-miterlimit:10;" d="M 77.390625 148.457031 L 66.472656 166.484375 "/>
<path style="fill:none;stroke-width:1.2;stroke-linecap:butt;stroke-linejoin:miter;stroke:rgb(0%,0%,0%);stroke-opacity:1;stroke-miterlimit:10;" d="M 72.058594 147.691406 L 63.324219 162.113281 "/>
<path style="fill:none;stroke-width:1.2;stroke-linecap:butt;stroke-linejoin:miter;stroke:rgb(0%,0%,0%);stroke-opacity:1;stroke-miterlimit:10;" d="M 66.472656 166.484375 L 45.402344 166.042969 "/>
<path style="fill:none;stroke-width:1.2;stroke-linecap:butt;stroke-linejoin:miter;stroke:rgb(0%,0%,0%);stroke-opacity:1;stroke-miterlimit:10;" d="M 66.472656 166.484375 L 76.628906 184.953125 "/>
<path style="fill:none;stroke-width:1.2;stroke-linecap:butt;stroke-linejoin:miter;stroke:rgb(0%,0%,0%);stroke-opacity:1;stroke-miterlimit:10;" d="M 45.402344 166.042969 L 35.25 147.574219 "/>
<path style="fill:none;stroke-width:1.2;stroke-linecap:butt;stroke-linejoin:miter;stroke:rgb(0%,0%,0%);stroke-opacity:1;stroke-miterlimit:10;" d="M 48.734375 161.804688 L 40.609375 147.03125 "/>
<path style="fill:none;stroke-width:1.2;stroke-linecap:butt;stroke-linejoin:miter;stroke:rgb(0%,0%,0%);stroke-opacity:1;stroke-miterlimit:10;" d="M 74.507812 183.667969 L 69.046875 192.679688 "/>
<path style="fill:none;stroke-width:1.2;stroke-linecap:butt;stroke-linejoin:miter;stroke:rgb(100%,0%,0%);stroke-opacity:1;stroke-miterlimit:10;" d="M 69.046875 192.679688 L 63.589844 201.695312 "/>
<path style="fill:none;stroke-width:1.2;stroke-linecap:butt;stroke-linejoin:miter;stroke:rgb(0%,0%,0%);stroke-opacity:1;stroke-miterlimit:10;" d="M 78.75 186.238281 L 73.289062 195.25 "/>
<path style="fill:none;stroke-width:1.2;stroke-linecap:butt;stroke-linejoin:miter;stroke:rgb(100%,0%,0%);stroke-opacity:1;stroke-miterlimit:10;" d="M 73.289062 195.25 L 67.832031 204.265625 "/>
<path style="fill:none;stroke-width:1.2;stroke-linecap:butt;stroke-linejoin:miter;stroke:rgb(0%,0%,0%);stroke-opacity:1;stroke-miterlimit:10;" d="M 76.628906 184.953125 L 87.164062 185.171875 "/>
<path style="fill:none;stroke-width:1.2;stroke-linecap:butt;stroke-linejoin:miter;stroke:rgb(0%,0%,100%);stroke-opacity:1;stroke-miterlimit:10;" d="M 87.164062 185.171875 L 97.699219 185.394531 "/>
<path style=" stroke:none;fill-rule:nonzero;fill:rgb(100%,100%,100%);fill-opacity:1;" d="M 57.710938 197.480469 L 65.710938 197.480469 L 65.710938 208.480469 L 57.710938 208.480469 Z M 57.710938 197.480469 "/>
<g style="fill:rgb(100%,0%,0%);fill-opacity:1;">
  <use xlink:href="#glyph0-1" x="57.710938" y="206.143555"/>
</g>
<path style="fill:none;stroke-width:1.2;stroke-linecap:butt;stroke-linejoin:miter;stroke:rgb(0%,0%,100%);stroke-opacity:1;stroke-miterlimit:10;" d="M 97.699219 185.394531 L 102.773438 194.628906 "/>
<path style="fill:none;stroke-width:1.2;stroke-linecap:butt;stroke-linejoin:miter;stroke:rgb(0%,0%,0%);stroke-opacity:1;stroke-miterlimit:10;" d="M 102.773438 194.628906 L 107.851562 203.863281 "/>
<path style="fill:none;stroke-width:1.2;stroke-linecap:butt;stroke-linejoin:miter;stroke:rgb(0%,0%,0%);stroke-opacity:1;stroke-miterlimit:10;" d="M 108.617188 167.367188 L 103.15625 176.378906 "/>
<path style="fill:none;stroke-width:1.2;stroke-linecap:butt;stroke-linejoin:miter;stroke:rgb(0%,0%,100%);stroke-opacity:1;stroke-miterlimit:10;" d="M 103.15625 176.378906 L 97.699219 185.394531 "/>
<path style=" stroke:none;fill-rule:nonzero;fill:rgb(100%,100%,100%);fill-opacity:1;" d="M 94.699219 179.894531 L 101.699219 179.894531 L 101.699219 190.894531 L 94.699219 190.894531 Z M 94.699219 179.894531 "/>
<g style="fill:rgb(0%,0%,100%);fill-opacity:1;">
  <use xlink:href="#glyph0-2" x="94.699219" y="188.557617"/>
</g>
<path style="fill:none;stroke-width:1.2;stroke-linecap:butt;stroke-linejoin:miter;stroke:rgb(0%,0%,0%);stroke-opacity:1;stroke-miterlimit:10;" d="M 107.851562 203.863281 L 128.921875 204.300781 "/>
<path style="fill:none;stroke-width:1.2;stroke-linecap:butt;stroke-linejoin:miter;stroke:rgb(0%,0%,0%);stroke-opacity:1;stroke-miterlimit:10;" d="M 128.921875 204.300781 L 139.839844 186.273438 "/>
<path style="fill:none;stroke-width:1.2;stroke-linecap:butt;stroke-linejoin:miter;stroke:rgb(0%,0%,0%);stroke-opacity:1;stroke-miterlimit:10;" d="M 139.839844 186.273438 L 149.992188 204.742188 "/>
<path style="fill:none;stroke-width:1.2;stroke-linecap:butt;stroke-linejoin:miter;stroke:rgb(0%,0%,0%);stroke-opacity:1;stroke-miterlimit:10;" d="M 139.839844 186.273438 L 129.6875 167.808594 "/>
<path style="fill:none;stroke-width:1.2;stroke-linecap:butt;stroke-linejoin:miter;stroke:rgb(0%,0%,0%);stroke-opacity:1;stroke-miterlimit:10;" d="M 150.757812 168.246094 L 139.839844 186.273438 "/>
<path style="fill:none;stroke-width:1.2;stroke-linecap:butt;stroke-linejoin:miter;stroke:rgb(0%,0%,0%);stroke-opacity:1;stroke-miterlimit:10;" d="M 149.992188 204.742188 L 171.066406 205.183594 "/>
<path style="fill:none;stroke-width:1.2;stroke-linecap:butt;stroke-linejoin:miter;stroke:rgb(0%,0%,0%);stroke-opacity:1;stroke-miterlimit:10;" d="M 171.066406 205.183594 L 181.980469 187.15625 "/>
<path style="fill:none;stroke-width:1.2;stroke-linecap:butt;stroke-linejoin:miter;stroke:rgb(0%,0%,0%);stroke-opacity:1;stroke-miterlimit:10;" d="M 181.980469 187.15625 L 176.90625 177.921875 "/>
<path style="fill:none;stroke-width:1.2;stroke-linecap:butt;stroke-linejoin:miter;stroke:rgb(0%,0%,100%);stroke-opacity:1;stroke-miterlimit:10;" d="M 176.90625 177.921875 L 171.828125 168.6875 "/>
<path style="fill:none;stroke-width:1.2;stroke-linecap:butt;stroke-linejoin:miter;stroke:rgb(0%,0%,100%);stroke-opacity:1;stroke-miterlimit:10;" d="M 171.828125 168.6875 L 161.292969 168.46875 "/>
<path style="fill:none;stroke-width:1.2;stroke-linecap:butt;stroke-linejoin:miter;stroke:rgb(0%,0%,0%);stroke-opacity:1;stroke-miterlimit:10;" d="M 161.292969 168.46875 L 150.757812 168.246094 "/>
<path style="fill:none;stroke-width:1.2;stroke-linecap:butt;stroke-linejoin:miter;stroke:rgb(0%,0%,100%);stroke-opacity:1;stroke-miterlimit:10;" d="M 171.828125 168.6875 L 177.289062 159.675781 "/>
<path style="fill:none;stroke-width:1.2;stroke-linecap:butt;stroke-linejoin:miter;stroke:rgb(0%,0%,0%);stroke-opacity:1;stroke-miterlimit:10;" d="M 177.289062 159.675781 L 182.746094 150.660156 "/>
<path style=" stroke:none;fill-rule:nonzero;fill:rgb(100%,100%,100%);fill-opacity:1;" d="M 168.828125 163.1875 L 175.828125 163.1875 L 175.828125 174.1875 L 168.828125 174.1875 Z M 168.828125 163.1875 "/>
<g style="fill:rgb(0%,0%,100%);fill-opacity:1;">
  <use xlink:href="#glyph0-2" x="168.828125" y="171.850586"/>
</g>
<path style="fill:none;stroke-width:1.2;stroke-linecap:butt;stroke-linejoin:miter;stroke:rgb(0%,0%,0%);stroke-opacity:1;stroke-miterlimit:10;" d="M 182.746094 150.660156 L 203.816406 151.101562 "/>
<path style="fill:none;stroke-width:1.2;stroke-linecap:butt;stroke-linejoin:miter;stroke:rgb(0%,0%,0%);stroke-opacity:1;stroke-miterlimit:10;" d="M 203.816406 151.101562 L 213.96875 169.570312 "/>
<path style="fill:none;stroke-width:1.2;stroke-linecap:butt;stroke-linejoin:miter;stroke:rgb(0%,0%,0%);stroke-opacity:1;stroke-miterlimit:10;" d="M 209.179688 150.5625 L 217.300781 165.335938 "/>
<path style="fill:none;stroke-width:1.2;stroke-linecap:butt;stroke-linejoin:miter;stroke:rgb(0%,0%,0%);stroke-opacity:1;stroke-miterlimit:10;" d="M 214.734375 133.074219 L 203.816406 151.101562 "/>
<path style="fill:none;stroke-width:1.2;stroke-linecap:butt;stroke-linejoin:miter;stroke:rgb(0%,0%,0%);stroke-opacity:1;stroke-miterlimit:10;" d="M 213.96875 169.570312 L 235.042969 170.011719 "/>
<path style="fill:none;stroke-width:1.2;stroke-linecap:butt;stroke-linejoin:miter;stroke:rgb(0%,0%,0%);stroke-opacity:1;stroke-miterlimit:10;" d="M 235.042969 170.011719 L 245.957031 151.984375 "/>
<path style="fill:none;stroke-width:1.2;stroke-linecap:butt;stroke-linejoin:miter;stroke:rgb(0%,0%,0%);stroke-opacity:1;stroke-miterlimit:10;" d="M 231.890625 165.640625 L 240.625 151.21875 "/>
<path style="fill:none;stroke-width:1.2;stroke-linecap:butt;stroke-linejoin:miter;stroke:rgb(0%,0%,0%);stroke-opacity:1;stroke-miterlimit:10;" d="M 235.042969 170.011719 L 245.195312 188.480469 "/>
<path style="fill:none;stroke-width:1.2;stroke-linecap:butt;stroke-linejoin:miter;stroke:rgb(0%,0%,0%);stroke-opacity:1;stroke-miterlimit:10;" d="M 245.957031 151.984375 L 235.804688 133.515625 "/>
<path style="fill:none;stroke-width:1.2;stroke-linecap:butt;stroke-linejoin:miter;stroke:rgb(0%,0%,0%);stroke-opacity:1;stroke-miterlimit:10;" d="M 235.804688 133.515625 L 214.734375 133.074219 "/>
<path style="fill:none;stroke-width:1.2;stroke-linecap:butt;stroke-linejoin:miter;stroke:rgb(0%,0%,0%);stroke-opacity:1;stroke-miterlimit:10;" d="M 233.59375 138.429688 L 216.738281 138.078125 "/>
<path style="fill:none;stroke-width:1.2;stroke-linecap:butt;stroke-linejoin:miter;stroke:rgb(0%,0%,0%);stroke-opacity:1;stroke-miterlimit:10;" d="M 235.804688 133.515625 L 246.722656 115.488281 "/>
<path style="fill:none;stroke-width:1.2;stroke-linecap:butt;stroke-linejoin:miter;stroke:rgb(0%,0%,0%);stroke-opacity:1;stroke-miterlimit:10;" d="M 246.722656 115.488281 L 252.179688 106.476562 "/>
<path style="fill:none;stroke-width:1.2;stroke-linecap:butt;stroke-linejoin:miter;stroke:rgb(20%,80%,80%);stroke-opacity:1;stroke-miterlimit:10;" d="M 252.179688 106.476562 L 257.640625 97.460938 "/>
<path style="fill:none;stroke-width:1.2;stroke-linecap:butt;stroke-linejoin:miter;stroke:rgb(0%,0%,0%);stroke-opacity:1;stroke-miterlimit:10;" d="M 246.722656 115.488281 L 255.734375 120.949219 "/>
<path style="fill:none;stroke-width:1.2;stroke-linecap:butt;stroke-linejoin:miter;stroke:rgb(20%,80%,80%);stroke-opacity:1;stroke-miterlimit:10;" d="M 255.734375 120.949219 L 264.75 126.40625 "/>
<path style="fill:none;stroke-width:1.2;stroke-linecap:butt;stroke-linejoin:miter;stroke:rgb(0%,0%,0%);stroke-opacity:1;stroke-miterlimit:10;" d="M 246.722656 115.488281 L 237.707031 110.03125 "/>
<path style="fill:none;stroke-width:1.2;stroke-linecap:butt;stroke-linejoin:miter;stroke:rgb(20%,80%,80%);stroke-opacity:1;stroke-miterlimit:10;" d="M 237.707031 110.03125 L 228.695312 104.570312 "/>
<path style=" stroke:none;fill-rule:nonzero;fill:rgb(100%,100%,100%);fill-opacity:1;" d="M 254.640625 91.960938 L 260.640625 91.960938 L 260.640625 102.960938 L 254.640625 102.960938 Z M 254.640625 91.960938 "/>
<g style="fill:rgb(20%,80%,80%);fill-opacity:1;">
  <use xlink:href="#glyph0-3" x="254.640625" y="100.624023"/>
</g>
<path style=" stroke:none;fill-rule:nonzero;fill:rgb(100%,100%,100%);fill-opacity:1;" d="M 261.75 120.90625 L 267.75 120.90625 L 267.75 131.90625 L 261.75 131.90625 Z M 261.75 120.90625 "/>
<g style="fill:rgb(20%,80%,80%);fill-opacity:1;">
  <use xlink:href="#glyph0-3" x="261.75" y="129.569336"/>
</g>
<path style=" stroke:none;fill-rule:nonzero;fill:rgb(100%,100%,100%);fill-opacity:1;" d="M 222.695312 99.070312 L 228.695312 99.070312 L 228.695312 110.070312 L 222.695312 110.070312 Z M 222.695312 99.070312 "/>
<g style="fill:rgb(20%,80%,80%);fill-opacity:1;">
  <use xlink:href="#glyph0-3" x="222.695312" y="107.733398"/>
</g>
<path style="fill:none;stroke-width:1.2;stroke-linecap:butt;stroke-linejoin:miter;stroke:rgb(0%,0%,0%);stroke-opacity:1;stroke-miterlimit:10;" d="M 245.195312 188.480469 L 250.269531 197.714844 "/>
<path style="fill:none;stroke-width:1.2;stroke-linecap:butt;stroke-linejoin:miter;stroke:rgb(20%,80%,80%);stroke-opacity:1;stroke-miterlimit:10;" d="M 250.269531 197.714844 L 255.347656 206.949219 "/>
<path style="fill:none;stroke-width:1.2;stroke-linecap:butt;stroke-linejoin:miter;stroke:rgb(0%,0%,0%);stroke-opacity:1;stroke-miterlimit:10;" d="M 245.195312 188.480469 L 235.960938 193.558594 "/>
<path style="fill:none;stroke-width:1.2;stroke-linecap:butt;stroke-linejoin:miter;stroke:rgb(20%,80%,80%);stroke-opacity:1;stroke-miterlimit:10;" d="M 235.960938 193.558594 L 226.726562 198.632812 "/>
<path style="fill:none;stroke-width:1.2;stroke-linecap:butt;stroke-linejoin:miter;stroke:rgb(0%,0%,0%);stroke-opacity:1;stroke-miterlimit:10;" d="M 245.195312 188.480469 L 254.429688 183.402344 "/>
<path style="fill:none;stroke-width:1.2;stroke-linecap:butt;stroke-linejoin:miter;stroke:rgb(20%,80%,80%);stroke-opacity:1;stroke-miterlimit:10;" d="M 254.429688 183.402344 L 263.664062 178.328125 "/>
<path style=" stroke:none;fill-rule:nonzero;fill:rgb(100%,100%,100%);fill-opacity:1;" d="M 252.347656 201.449219 L 258.347656 201.449219 L 258.347656 212.449219 L 252.347656 212.449219 Z M 252.347656 201.449219 "/>
<g style="fill:rgb(20%,80%,80%);fill-opacity:1;">
  <use xlink:href="#glyph0-3" x="252.347656" y="210.112305"/>
</g>
<path style=" stroke:none;fill-rule:nonzero;fill:rgb(100%,100%,100%);fill-opacity:1;" d="M 220.726562 193.132812 L 226.726562 193.132812 L 226.726562 204.132812 L 220.726562 204.132812 Z M 220.726562 193.132812 "/>
<g style="fill:rgb(20%,80%,80%);fill-opacity:1;">
  <use xlink:href="#glyph0-3" x="220.726562" y="201.795898"/>
</g>
<path style=" stroke:none;fill-rule:nonzero;fill:rgb(100%,100%,100%);fill-opacity:1;" d="M 260.664062 172.828125 L 266.664062 172.828125 L 266.664062 183.828125 L 260.664062 183.828125 Z M 260.664062 172.828125 "/>
<g style="fill:rgb(20%,80%,80%);fill-opacity:1;">
  <use xlink:href="#glyph0-3" x="260.664062" y="181.491211"/>
</g>
<path style="fill:none;stroke-width:1.2;stroke-linecap:butt;stroke-linejoin:miter;stroke:rgb(0%,0%,0%);stroke-opacity:1;stroke-miterlimit:10;" d="M 129.6875 167.808594 L 108.617188 167.367188 "/>
</g>
</svg>

<svg xmlns="http://www.w3.org/2000/svg" xmlns:xlink="http://www.w3.org/1999/xlink" width="300pt" height="300pt" viewBox="0 0 300 300"><defs><symbol overflow="visible"><path d="M.453 1.594v-7.938h4.5v7.938zm.5-.5h3.5v-6.938h-3.5zm0 0"/></symbol><symbol overflow="visible" id="a"><path d="M3.547-5.953c-.65 0-1.164.242-1.547.72-.375.48-.563 1.13-.563 1.952 0 .835.188 1.49.563 1.967.383.48.898.72 1.547.72.644 0 1.156-.24 1.53-.72.376-.476.564-1.132.564-1.968 0-.822-.187-1.474-.562-1.954-.375-.477-.887-.72-1.53-.72zm0-.734c.914 0 1.648.312 2.203.937.55.617.828 1.438.828 2.47 0 1.042-.277 1.87-.828 2.483-.555.617-1.29.922-2.203.922-.93 0-1.668-.305-2.22-.922C.774-1.41.5-2.237.5-3.28c0-1.033.273-1.853.828-2.47.55-.625 1.29-.938 2.22-.938zm0 0"/></symbol><symbol overflow="visible" id="b"><path d="M.89-6.563H2.08l2.906 5.485v-5.484h.86V0H4.656L1.75-5.484V0H.89zm0 0"/></symbol><symbol overflow="visible" id="c"><path d="M.89-6.563h3.766v.75h-2.89v1.938h2.61v.734h-2.61V0H.89zm0 0"/></symbol></defs><g><path fill="#fff" d="M0 0h300v300H0z"/><path d="M46.93 93.05l-5.457 9.016" stroke-width="1.2" stroke="#000" stroke-miterlimit="10" fill="none"/><path d="M41.473 102.066l-5.457 9.012M36.016 111.078l5.074 9.234" stroke-width="1.2" stroke="#f00" stroke-miterlimit="10" fill="none"/><path d="M41.09 120.313l5.078 9.234" stroke-width="1.2" stroke="#000" stroke-miterlimit="10" fill="none"/><path d="M32.016 105.578h8v11h-8zm0 0" fill="#fff"/><use xlink:href="#a" x="32.016" y="114.241" fill="#f00"/><path d="M46.168 129.547l21.07.44M48.172 134.547l16.855.355M35.25 147.574l10.918-18.027M67.238 129.988l10.153 18.47M77.39 148.457l-10.917 18.027M72.06 147.69l-8.736 14.423M66.473 166.484l-21.07-.44M66.473 166.484l10.156 18.47M45.402 166.043l-10.152-18.47M48.734 161.805L40.61 147.03M74.508 183.668l-5.46 9.012" stroke-width="1.2" stroke="#000" stroke-miterlimit="10" fill="none"/><path d="M69.047 192.68l-5.457 9.015" stroke-width="1.2" stroke="#f00" stroke-miterlimit="10" fill="none"/><path d="M78.75 186.238l-5.46 9.012" stroke-width="1.2" stroke="#000" stroke-miterlimit="10" fill="none"/><path d="M73.29 195.25l-5.458 9.016" stroke-width="1.2" stroke="#f00" stroke-miterlimit="10" fill="none"/><path d="M76.63 184.953l10.534.22" stroke-width="1.2" stroke="#000" stroke-miterlimit="10" fill="none"/><path d="M87.164 185.172l10.535.223" stroke-width="1.2" stroke="#00f" stroke-miterlimit="10" fill="none"/><path d="M57.71 197.48h8v11h-8zm0 0" fill="#fff"/><use xlink:href="#a" x="57.711" y="206.144" fill="#f00"/><path d="M97.7 185.395l5.073 9.234" stroke-width="1.2" stroke="#00f" stroke-miterlimit="10" fill="none"/><path d="M102.773 194.63l5.08 9.233M108.617 167.367l-5.46 9.012" stroke-width="1.2" stroke="#000" stroke-miterlimit="10" fill="none"/><path d="M103.156 176.38l-5.457 9.015" stroke-width="1.2" stroke="#00f" stroke-miterlimit="10" fill="none"/><path d="M94.7 179.895h7v11h-7zm0 0" fill="#fff"/><use xlink:href="#b" x="94.699" y="188.558" fill="#00f"/><path d="M107.852 203.863l21.07.438M128.922 204.3l10.918-18.027M139.84 186.273l10.152 18.47M139.84 186.273l-10.153-18.464M150.758 168.246l-10.918 18.027M149.992 204.742l21.074.442M171.066 205.184l10.914-18.028M181.98 187.156l-5.074-9.234" stroke-width="1.2" stroke="#000" stroke-miterlimit="10" fill="none"/><path d="M176.906 177.922l-5.078-9.234M171.828 168.688l-10.535-.22" stroke-width="1.2" stroke="#00f" stroke-miterlimit="10" fill="none"/><path d="M161.293 168.47l-10.535-.224" stroke-width="1.2" stroke="#000" stroke-miterlimit="10" fill="none"/><path d="M171.828 168.688l5.46-9.012" stroke-width="1.2" stroke="#00f" stroke-miterlimit="10" fill="none"/><path d="M177.29 159.676l5.456-9.016" stroke-width="1.2" stroke="#000" stroke-miterlimit="10" fill="none"/><path d="M168.828 163.188h7v11h-7zm0 0" fill="#fff"/><use xlink:href="#b" x="168.828" y="171.851" fill="#00f"/><path d="M182.746 150.66l21.07.442M203.816 151.102l10.153 18.468M209.18 150.563l8.12 14.773M214.734 133.074l-10.918 18.028M213.97 169.57l21.073.442M235.043 170.012l10.914-18.028M231.89 165.64l8.735-14.42M235.043 170.012l10.152 18.468M245.957 151.984l-10.152-18.468M235.805 133.516l-21.07-.442M233.594 138.43l-16.856-.352M235.805 133.516l10.918-18.028M246.723 115.488l5.457-9.01" stroke-width="1.2" stroke="#000" stroke-miterlimit="10" fill="none"/><path d="M252.18 106.477l5.46-9.016" stroke-width="1.2" stroke="#3cc" stroke-miterlimit="10" fill="none"/><path d="M246.723 115.488l9.01 5.46" stroke-width="1.2" stroke="#000" stroke-miterlimit="10" fill="none"/><path d="M255.734 120.95l9.016 5.456" stroke-width="1.2" stroke="#3cc" stroke-miterlimit="10" fill="none"/><path d="M246.723 115.488l-9.016-5.457" stroke-width="1.2" stroke="#000" stroke-miterlimit="10" fill="none"/><path d="M237.707 110.03l-9.012-5.46" stroke-width="1.2" stroke="#3cc" stroke-miterlimit="10" fill="none"/><path d="M254.64 91.96h6v11h-6zm0 0" fill="#fff"/><use xlink:href="#c" x="254.641" y="100.624" fill="#3cc"/><path d="M261.75 120.906h6v11h-6zm0 0" fill="#fff"/><use xlink:href="#c" x="261.75" y="129.569" fill="#3cc"/><path d="M222.695 99.07h6v11h-6zm0 0" fill="#fff"/><use xlink:href="#c" x="222.695" y="107.733" fill="#3cc"/><path d="M245.195 188.48l5.075 9.235" stroke-width="1.2" stroke="#000" stroke-miterlimit="10" fill="none"/><path d="M250.27 197.715l5.078 9.234" stroke-width="1.2" stroke="#3cc" stroke-miterlimit="10" fill="none"/><path d="M245.195 188.48l-9.234 5.08" stroke-width="1.2" stroke="#000" stroke-miterlimit="10" fill="none"/><path d="M235.96 193.56l-9.233 5.073" stroke-width="1.2" stroke="#3cc" stroke-miterlimit="10" fill="none"/><path d="M245.195 188.48l9.235-5.078" stroke-width="1.2" stroke="#000" stroke-miterlimit="10" fill="none"/><path d="M254.43 183.402l9.234-5.074" stroke-width="1.2" stroke="#3cc" stroke-miterlimit="10" fill="none"/><path d="M252.348 201.45h6v11h-6zm0 0" fill="#fff"/><use xlink:href="#c" x="252.348" y="210.112" fill="#3cc"/><path d="M220.727 193.133h6v11h-6zm0 0" fill="#fff"/><use xlink:href="#c" x="220.727" y="201.796" fill="#3cc"/><path d="M260.664 172.828h6v11h-6zm0 0" fill="#fff"/><use xlink:href="#c" x="260.664" y="181.491" fill="#3cc"/><path d="M129.688 167.81l-21.07-.443" stroke-width="1.2" stroke="#000" stroke-miterlimit="10" fill="none"/></g></svg>
